!!!COM: d'Indy
!!!CNT: Francais
!!!TXO: Francais
!!!OTL: Plainte de The/cla
!!!LYR: Bonnie\res
!!!OPR: 
!!!OPS: Op. 10
!!!ONM: 
!!!ENC: Ben Fuhrman
!!!YOR: Paris, J. Hamelle, 1911
!!!YOR: IMSLP, http://imslp.org/wiki/Plainte_de_Th%C3%A9cla,_Op.10_%28Indy,_Vincent_d%27%29
!!!ODT: 1880
!!NB: Only vocal melody encoded.
!!NB: First instance of melodic material only encoded.
!!created: 2/24/10 3:21PM
!!proofed and posted: 2/24/10 3:25PM
**kern	**silbe
*clef G2	*
*k[b-]	*
*M2/4	*
*MM[Lent]	*
=2	=2
4r	.
{(8f	{La
16e)	|
16d	fo-
=3	=3
8.a	-re^t
16cc	ge/-
[4a	-mit,
=4	=4
8a]}	|}
8r	.
{(8cc	{le
16b-)	|
16a	nu-
=5	=5
8.dd	-a-
16f	-ge
([4dd	rou-
=6	=6
8dd]	|
8b-)	|
4a}	-le,}
=7	=7
8r	.
{8c	{Ca-
8a	-chant
16g	dans
16f	la
=8	=8
8.a	nuit
16cc	les
[4a	as-
=9	=9
(8a]	|
8g)	|
8f	-tres,
(16e	les
16d)	|
=10	=10
4b-	as-
8.a	-tres
16f	des
=11	=11
4d}	cieux.}
4r	.
=12	=12
*M6/8	*
*MM[Un peu plus anime/.]	*
{4cc   	{Et
8a	la
4b-	jeu-
8g	-ne
=13	=13
(8cc	fille
8a)	|
8g	au
8f	front
8g	sou-
8a	-ci-
=14	=14
[2.cc	-eux
=15	=15
4.cc]}	|}
4r	.
8r	.
=16	=16
{4ff	{Er-
8cc	-re
4ee-	sur
8dd-	la
=17	=17
8dd-	rive
8b-	ou\
8a-	le
(8g-	flot
8a-)	|
8b-	s'e/-
=18	=18
*M2/4	*
4b-	-crou-
8dn}	-le;}
8r	.
=19	=19
*MM[1er Mouvement.]	*
8r	.
{8g	{Et
(8f	des
8e)	|
=20	=20
(8.a	lar-
16cc)	|
[4a	-mes.
=21	=21
8a]}	|}
{8d	{des
8f	lar-
16e	-mes
16d	a-
=22	=22
(8e	-me\-
16f)	|
16g	-res
[4a	cou-
=23	=23
8a]	|
8b-	-lent
8.a	de
16f	ses
=24	=24
2d}	yeux.}
!! Rest to measure 29
=29	=29
4r	.
{(8f	{Tout
16e)	|
16d	es-
=30	=30
8.a	-poir
16cc	est
[4a	mort
=31	=31
4a]}	|}
{8cc	{en
(16b-	son
16a)	|
=32	=32
8.dd	a^me
16ff	a-
([4dd	-vi-
=33	=33
8dd]	|
8b-)	|
4a}	-de,}
=34	=34
8r	.
{8c	{La
8a	vie
16g	est
16f	pour
=35	=35
[2a	el-
=36	=36
8a]	|
8g	-le
8f	sans
(16e	at-
16d)	|
=37	=37
4b-	-trait
8.a	ni
16f	plai-
=38	=38
4d}	-sir.}
8r	.
{8cc	{Ou\
=39	=39
*M6/8	*
*MM[Plus anime/.]	*
4.cc	donc
4b-	est
8dd-	l'a-
=40	=40
8cc	-mant
8a	qu'elle
8g	a
(8f	su
8g)	|
8a	choi-
=41	=41
[2.cc	-sir?
=42	=42
4.cc]}	|}
4r	.
8r	.
=43	=43
4r	.
{8ff	{Elle
8ee-	a
8.dd-	tant
16b-	ai-
=44	=44
8b-	-me/
8f	que
8e-	son
(8d-	coeur
8e-)	|
8f	est
=45	=45
*M2/4	*
*MM[1er Mouvement.]	*
4f	vi-
8f}	-de!}
8r	.
=46	=46
8r	.
{8g-	{Son
8f	pau-
8en	-vre
=47	=47
8.an	coeur
16cc	est
[4a	vide
=48	=48
8a]}	|}
{8d	{Et
(8f	n'of-
16e)	|
16d	-fre
=49	=49
8e	plus
(16f	de
16g)	|
([4cc	prise
=50	=50
8cc]	|
8b-)	|
8.b-	au
16a	de/-
=51	=51
2a}	-sir!}
==	==
*-	*-
